X: 1
T: Knuss-Olles livsstycke
R: Polska
O: Hlsingland
N: Historien frtljer att det var en spelman i Hlsingland som hette Knuss-Olle som var sjuk och lg fr dden. Hans sista nskning var att f hra denna polska. Nr han fick hra den blev han dock pigg igen varfr lten kommit att kallas fr Knuss-Olles livs-stycke.
N: Det finns en uppteckning p smus.se (http://www.smus.se/earkiv/fmk/browselarge.phplang=sw&katalogid=Hs2&bildnr=00014|SMUS - katalog Hs2 bild 14) men den skiljer sig litet frn denna.
Z: till abc 2008-06-03, Nils L efter en inspelning frn en spelkurs med Eivor Erkas.
M: 3/4
K: Am
L: 1/16
(AB)cB A2E2 C2A,2 | c2Bc (dc)BA e2E2 | (ED)FD {EF}E2C2 B,2A,2 | E2DE {FG}F2D2 B,2G,2 |
(G,C)EC (DE)FD (EF)GE | (AB)cA (Bc)dB c2C2 | (G,C)EC (DE)FD (EF)GE | (AB)cA (Bc)dB (cB)A^G |
A2a^g a2AB c2ec | (BA)^GA B4 A4 :: G2ce g4 g4 | G2ce g2eg f2d2 | G2Bd f2[f2d2] [B2f2][f2d2] | 
G2Bd f2df e2c2 | (Gc)ec (Gc)ec (Gc)ec | (GB)dB (GB)dB (GB)dB |
(Gc)ec (Gc)ec (Gc)ec | (GB)dB (GB)dB e2E2 | (ED)FD {EF}E2C2 B,2A,2 | a2gf e2d2 c2B2 |
(A^G)BG A2E2 C2A,2 | e2de f2d2 B2G2 | (Gc)ec (de)fd e4 | (AB)cA (Bc)dB (cB)A^G |
A2a^g a2AB c2ec | (BA)^GA B4 A4 :|
